X: 13947
T: Frailach
R: hornpipe
M: 4/4
K: Gmajor
|:BEGE EGBG|A2AG ABG2|GBdB GBdB|A2AG ABG2|
GAAG GFF=F|E4E3D|GAAG GFF=F|1 E8:|2 E4BE||
|:GB|e6 dc|B6 B2|eBeB e2dc|B6 B2|
e6 d/c/B|f6 g2|eBeB e2dc|B6BA|
GABc BcBc|BcBc B2A2|AEEA AEEA|AGAB A2G2|
GAAG GFF=F|E6BE|GAAG GFF=F|1 E4BE:|2 E8||

